images/default/logo.svg

<?xml version="1.0" encoding="UTF-8"?>
<svg width="1000px" height="182px" viewBox="0 0 1000 182" version="1.1" xmlns="http://www.w3.org/2000/svg" xmlns:xlink="http://www.w3.org/1999/xlink">
    <title>Rocket.Chat Logo</title>
    <g id="logo" stroke="none" stroke-width="1" fill="none" fill-rule="evenodd">
        <g id="type" transform="translate(245.154709, 29.581775)" fill="#ffffff" fill-rule="nonzero">
            <path d="M62.5717573,58.8485839 C62.5717573,69.0064127 58.7804613,75.6774374 51.5006054,78.8592939 L61.9662852,118.580494 C62.4203893,120.403088 61.5121812,121.308475 59.8424026,121.308475 L44.0670163,121.308475 C42.5509709,121.308475 41.7941308,120.552016 41.4890296,119.185662 L31.3260858,80.6795239 L20.8604059,80.6795239 L20.8604059,118.885442 C20.8604059,120.403088 19.9521978,121.308475 18.4337873,121.308475 L2.65840094,121.308475 C1.14235556,121.308475 0.231782288,120.39836 0.231782288,118.885442 L0.231782288,2.44982204 C0.231782288,0.934539684 1.14235556,0.0244246988 2.65840094,0.0244246988 L40.7298244,0.0244246988 C54.9868002,0.0244246988 62.5717573,7.60556433 62.5717573,21.8553647 L62.5717573,58.8485839 Z M35.8765871,60.6664499 C39.8192511,60.6664499 41.9431337,58.5436363 41.9431337,54.6029566 L41.9431337,26.100992 C41.9431337,22.1603123 39.8192511,20.0398626 35.8765871,20.0398626 L20.8604059,20.0398626 L20.8604059,60.6688139 L35.8765871,60.6664499 Z" id="Shape"></path>
            <path d="M74.6977552,21.8553647 C74.6977552,7.60556433 82.2803472,0.0244246988 96.5396882,0.0244246988 L113.528384,0.0244246988 C127.78536,0.0244246988 135.370317,7.60556433 135.370317,21.8553647 L135.370317,99.4775352 C135.370317,113.724972 127.78536,121.306111 113.528384,121.306111 L96.5396882,121.306111 C82.2803472,121.306111 74.6977552,113.724972 74.6977552,99.4775352 L74.6977552,21.8553647 Z M109.734723,101.749277 C113.677387,101.749277 115.801269,99.7777549 115.801269,95.6857834 L115.801269,25.6471165 C115.801269,21.7064368 113.677387,19.5836231 109.734723,19.5836231 L100.938821,19.5836231 C96.9961574,19.5836231 94.8722748,21.7064368 94.8722748,25.6471165 L94.8722748,95.6881474 C94.8722748,99.7777549 96.9961574,101.749277 100.938821,101.749277 L109.734723,101.749277 Z" id="Shape"></path>
            <path d="M211.352335,38.2279787 C211.352335,39.7456249 210.441762,40.653376 208.928082,40.653376 L193.760533,40.653376 C192.090754,40.653376 191.333914,39.7456249 191.333914,38.2279787 L191.333914,26.100992 C191.333914,22.1603123 189.212396,20.0398626 185.269732,20.0398626 L177.382039,20.0398626 C173.288007,20.0398626 171.315493,22.1603123 171.315493,26.100992 L171.315493,95.2366358 C171.315493,99.3286073 173.43701,101.295401 177.382039,101.295401 L185.269732,101.295401 C189.212396,101.295401 191.333914,99.3262434 191.333914,95.2366358 L191.333914,83.1049212 C191.333914,81.5872749 192.090754,80.6795239 193.760533,80.6795239 L208.928082,80.6795239 C210.448857,80.6795239 211.352335,81.5872749 211.352335,83.1049212 L211.352335,99.4798991 C211.352335,113.727336 203.61601,121.308475 189.512767,121.308475 L172.524072,121.308475 C158.267096,121.308475 150.530771,113.727336 150.530771,99.4798991 L150.530771,21.8553647 C150.530771,7.60556433 158.267096,0.0244246988 172.524072,0.0244246988 L189.512767,0.0244246988 C203.618375,0.0244246988 211.352335,7.60556433 211.352335,21.8553647 L211.352335,38.2279787 Z" id="Shape"></path>
            <path d="M275.352628,121.308475 C273.529117,121.308475 272.471905,120.552016 271.861703,119.036734 L252.753855,74.0084992 L247.139047,84.7738593 L247.139047,118.275547 C247.139047,120.247068 246.079471,121.308475 244.106957,121.308475 L229.54488,121.308475 C227.572365,121.308475 226.510424,120.247068 226.510424,118.275547 L226.510424,3.05735334 C226.510424,1.08819546 227.572365,0.0244246988 229.54488,0.0244246988 L244.106957,0.0244246988 C246.077106,0.0244246988 247.139047,1.08583153 247.139047,3.05735334 L247.139047,50.0547456 L270.497026,2.29853019 C271.256231,0.783247842 272.320537,0.0244246988 273.987951,0.0244246988 L289.91234,0.0244246988 C292.187591,0.0244246988 293.098164,1.54207099 292.033858,3.6625207 L266.251626,56.5721145 L293.701271,117.821671 C294.763212,119.793193 293.852639,121.308475 291.428386,121.308475 L275.352628,121.308475 Z" id="Shape"></path>
            <path d="M365.293617,17.6121013 C365.293617,19.1273836 364.685779,20.1887905 362.866998,20.1887905 L324.946943,20.1887905 L324.946943,50.5086211 L353.917363,50.5086211 C355.438139,50.5086211 356.343982,51.4187361 356.343982,53.0853103 L356.343982,68.0939338 C356.343982,69.7628719 355.433409,70.6729869 353.917363,70.6729869 L324.946943,70.6729869 L324.946943,101.295401 L362.866998,101.295401 C364.69051,101.295401 365.293617,102.054224 365.293617,103.720799 L365.293617,118.883078 C365.293617,120.39836 364.685779,121.303747 362.866998,121.303747 L307.050039,121.303747 C305.682996,121.303747 304.772423,120.393632 304.772423,118.883078 L304.772423,2.44982204 C304.772423,0.934539684 305.682996,0.0244246988 307.050039,0.0244246988 L362.866998,0.0244246988 C364.69051,0.0244246988 365.293617,0.934539684 365.293617,2.44982204 L365.293617,17.6121013 Z" id="Shape"></path>
            <path d="M435.665557,0.0244246988 C437.332971,0.0244246988 438.092176,0.934539684 438.092176,2.44982204 L438.092176,17.6121013 C438.092176,19.1273836 437.332971,20.0374986 435.665557,20.0374986 L418.07139,20.0374986 L418.07139,118.883078 C418.07139,120.549652 417.31455,121.303747 415.647136,121.303747 L399.87175,121.303747 C398.350974,121.303747 397.445131,120.549652 397.445131,118.883078 L397.445131,20.0374986 L379.853328,20.0374986 C378.332553,20.0374986 377.42671,19.1273836 377.42671,17.6121013 L377.42671,2.44982204 C377.42671,0.934539684 378.337283,0.0244246988 379.853328,0.0244246988 L435.665557,0.0244246988 Z" id="Shape"></path>
            <path d="M436.586195,104.356644 C436.586195,102.385122 437.648136,101.32608 439.620651,101.32608 L453.423523,101.32608 C455.396037,101.32608 456.455614,102.385122 456.455614,104.356644 L456.455614,118.301497 C456.455614,120.275383 455.396037,121.334426 453.423523,121.334426 L439.620651,121.334426 C437.648136,121.334426 436.586195,120.275383 436.586195,118.301497 L436.586195,104.356644 Z" id="Shape"></path>
            <path d="M532.422837,38.2279787 C532.422837,39.7456249 531.509899,40.653376 529.996219,40.653376 L514.828669,40.653376 C513.161256,40.653376 512.404416,39.7456249 512.404416,38.2279787 L512.404416,26.100992 C512.404416,22.1603123 510.282898,20.0398626 506.340234,20.0398626 L498.452541,20.0398626 C494.356144,20.0398626 492.385995,22.1603123 492.385995,26.100992 L492.385995,95.2366358 C492.385995,99.3286073 494.507512,101.295401 498.452541,101.295401 L506.340234,101.295401 C510.282898,101.295401 512.404416,99.3262434 512.404416,95.2366358 L512.404416,83.1049212 C512.404416,81.5872749 513.161256,80.6795239 514.828669,80.6795239 L529.996219,80.6795239 C531.516994,80.6795239 532.422837,81.5872749 532.422837,83.1049212 L532.422837,99.4798991 C532.422837,113.727336 524.686512,121.308475 510.580904,121.308475 L493.592209,121.308475 C479.335233,121.308475 471.598908,113.727336 471.598908,99.4798991 L471.598908,21.8553647 C471.598908,7.60556433 479.335233,0.0244246988 493.592209,0.0244246988 L510.580904,0.0244246988 C524.688877,0.0244246988 532.422837,7.60556433 532.422837,21.8553647 L532.422837,38.2279787 Z" id="Shape"></path>
            <path d="M587.627229,2.44982204 C587.627229,0.934539684 588.535437,0.0244246988 590.051482,0.0244246988 L605.673136,0.0244246988 C607.494282,0.0244246988 608.248757,0.934539684 608.248757,2.44982204 L608.248757,118.883078 C608.248757,120.39836 607.491917,121.303747 605.673136,121.303747 L590.051482,121.303747 C588.530707,121.303747 587.627229,120.393632 587.627229,118.883078 L587.627229,70.6729869 L568.211915,70.6729869 L568.211915,118.885442 C568.211915,120.403088 567.301341,121.308475 565.785296,121.308475 L550.166008,121.308475 C548.342496,121.308475 547.585656,120.39836 547.585656,118.885442 L547.585656,2.44982204 C547.585656,0.934539684 548.342496,0.0244246988 550.166008,0.0244246988 L565.785296,0.0244246988 C567.306072,0.0244246988 568.211915,0.934539684 568.211915,2.44982204 L568.211915,50.659913 L587.627229,50.659913 L587.627229,2.44982204 Z" id="Shape"></path>
            <path d="M677.416849,121.308475 C676.052172,121.308475 675.295332,120.552016 674.990231,119.185662 L670.744831,97.0545018 L643.744559,97.0545018 L639.652892,119.185662 C639.347791,120.552016 638.590951,121.308475 637.226273,121.308475 L620.999148,121.308475 C619.331735,121.308475 618.57253,120.39836 619.024268,118.731786 L644.203393,2.14723835 C644.508495,0.631956001 645.416703,0.0244246988 646.78138,0.0244246988 L667.866473,0.0244246988 C669.23115,0.0244246988 670.141724,0.631956001 670.44446,2.14723835 L695.623585,118.731786 C695.928686,120.39836 695.320848,121.308475 693.502067,121.308475 L677.416849,121.308475 Z M657.24233,26.5548675 L647.535855,79.4644613 L666.951169,79.4644613 L657.24233,26.5548675 Z" id="Shape"></path>
            <path d="M752.339291,0.0244246988 C754.006705,0.0244246988 754.76591,0.934539684 754.76591,2.44982204 L754.76591,17.6121013 C754.76591,19.1273836 754.006705,20.0374986 752.339291,20.0374986 L734.747489,20.0374986 L734.747489,118.883078 C734.747489,120.549652 733.988283,121.303747 732.32087,121.303747 L716.545484,121.303747 C715.029438,121.303747 714.12123,120.549652 714.12123,118.883078 L714.12123,20.0374986 L696.529428,20.0374986 C695.011017,20.0374986 694.105174,19.1273836 694.105174,17.6121013 L694.105174,2.44982204 C694.105174,0.934539684 695.015747,0.0244246988 696.529428,0.0244246988 L752.339291,0.0244246988 Z" id="Shape"></path>
        </g>
        <g id="icon">
            <path d="M180.330283,70.2108641 L180.333892,70.2165073 C180.333291,70.2155668 180.332689,70.2146264 180.332087,70.213686 C180.331486,70.2127454 180.330884,70.2118047 180.330283,70.2108641 Z M61.954152,7.64436327 C68.2928921,11.164898 74.2846134,15.6191491 79.4016009,20.5699674 C87.6499712,19.0760214 96.1550122,18.3226821 104.783255,18.3226821 C130.612543,18.3226821 155.100983,25.0984914 173.733224,37.3980812 C183.38199,43.7706948 191.051311,51.3316745 196.525584,59.8730564 C202.622027,69.3905961 205.712343,79.6253998 205.712343,90.5923218 C205.712343,101.264274 202.622027,111.503322 196.525584,121.01874 C191.051311,129.564366 183.38199,137.123224 173.733224,143.495837 C155.100983,155.795427 130.614597,162.566992 104.783255,162.566992 C96.1550122,162.566992 87.6520245,161.813653 79.4016009,160.321829 C74.28256,165.270525 68.2928921,169.726898 61.954152,173.247433 C28.085937,190.209238 0,173.646385 0,173.646385 C0,173.646385 26.1126525,151.476989 21.8662921,132.042958 C10.1826408,120.068047 3.85211418,105.625154 3.85211418,90.3015965 C3.85211418,75.2666424 10.1846942,60.8237493 21.8662921,48.846716 C26.1119493,29.4180247 0.00864693756,7.25275357 2.14766577e-06,7.24541359 C0.00835435701,7.24048522 28.0909741,-9.31704081 61.954152,7.64436327 Z" id="rocket" fill="#DB2323" fill-rule="nonzero"></path>
            <path d="M41.6969487,124.026456 C30.0889845,114.878649 23.1213873,103.17255 23.1213873,90.4136809 C23.1213873,61.1362728 59.8093762,37.4022441 105.066304,37.4022441 C150.323232,37.4022441 187.011221,61.1362728 187.011221,90.4136809 C187.011221,119.691089 150.323232,143.425118 105.066304,143.425118 C93.912316,143.425118 83.2788238,141.983462 73.5867827,139.372472 L66.5009556,146.206206 C62.6508003,149.919383 58.1381119,153.279632 53.4342869,155.927536 C47.1994165,158.989423 41.0426011,160.659947 34.9512744,161.16967 C35.2948967,160.544948 35.6113103,159.912092 35.9509881,159.286387 C43.0509631,146.207835 44.9662833,134.454525 41.6969487,124.026456 Z" id="bubble" fill="#FFF"></path>
            <path d="M65.7703624,103.026182 C59.1169113,103.026182 53.7232234,97.5458181 53.7232234,90.7854471 C53.7232234,84.0250762 59.1169113,78.5447127 65.7703624,78.5447127 C72.4238136,78.5447127 77.8175014,84.0250762 77.8175014,90.7854471 C77.8175014,97.5458181 72.4238136,103.026182 65.7703624,103.026182 Z M104.556273,103.026182 C97.9028222,103.026182 92.5091344,97.5458181 92.5091344,90.7854471 C92.5091344,84.0250762 97.9028222,78.5447127 104.556273,78.5447127 C111.209725,78.5447127 116.603412,84.0250762 116.603412,90.7854471 C116.603412,97.5458181 111.209725,103.026182 104.556273,103.026182 Z M143.342184,103.026182 C136.688733,103.026182 131.295045,97.5458181 131.295045,90.7854471 C131.295045,84.0250762 136.688733,78.5447127 143.342184,78.5447127 C149.995636,78.5447127 155.389323,84.0250762 155.389323,90.7854471 C155.389323,97.5458181 149.995636,103.026182 143.342184,103.026182 Z" id="circles" fill="#DB2323" fill-rule="nonzero"></path>
        </g>
    </g>
</svg>

<svg height="182" viewBox="0 0 1000 182" width="1000" xmlns="http://www.w3.org/2000/svg"><g fill="none" fill-rule="evenodd"><g fill="#fff" fill-rule="nonzero" transform="translate(245.154709 29.581775)"><path d="m62.5717573 58.8485839c0 10.1578288-3.791296 16.8288535-11.0711519 20.01071l10.4656798 39.7212001c.4541041 1.822594-.454104 2.727981-2.1238826 2.727981h-15.7753863c-1.5160454 0-2.2728855-.756459-2.5779867-2.122813l-10.1629438-38.5061381h-10.4656799v38.2059181c0 1.517646-.9082081 2.423033-2.4266186 2.423033h-15.77538636c-1.51604538 0-2.42661865-.910115-2.42661865-2.423033v-116.43561996c0-1.51528236.91057327-2.42539734 2.42661865-2.42539734h38.07142346c14.2569758 0 21.8419329 7.58113963 21.8419329 21.83094zm-26.6951702 1.817866c3.942664 0 6.0665466-2.1228136 6.0665466-6.0634933v-28.5019646c0-3.9406797-2.1238826-6.0611294-6.0665466-6.0611294h-15.0161812v40.6289513z"/><path d="m74.6977552 21.8553647c0-14.24980037 7.582592-21.83094 21.841933-21.83094h16.9886958c14.256976 0 21.841933 7.58113963 21.841933 21.83094v77.6221705c0 14.2474368-7.584957 21.8285758-21.841933 21.8285758h-16.9886958c-14.259341 0-21.841933-7.581139-21.841933-21.8285758zm35.0369678 79.8939123c3.942664 0 6.066546-1.9715221 6.066546-6.0634936v-70.0386669c0-3.9406797-2.123882-6.0634934-6.066546-6.0634934h-8.795902c-3.9426636 0-6.0665462 2.1228137-6.0665462 6.0634934v70.0410309c0 4.0896075 2.1238826 6.0611296 6.0665462 6.0611296z"/><path d="m211.352335 38.2279787c0 1.5176462-.910573 2.4253973-2.424253 2.4253973h-15.167549c-1.669779 0-2.426619-.9077511-2.426619-2.4253973v-12.1269867c0-3.9406797-2.121518-6.0611294-6.064182-6.0611294h-7.887693c-4.094032 0-6.066546 2.1204497-6.066546 6.0611294v69.1356438c0 4.0919715 2.121517 6.0587652 6.066546 6.0587652h7.887693c3.942664 0 6.064182-1.9691576 6.064182-6.0587652v-12.1317146c0-1.5176463.75684-2.4253973 2.426619-2.4253973h15.167549c1.520775 0 2.424253.907751 2.424253 2.4253973v16.3749779c0 14.2474369-7.736325 21.8285759-21.839568 21.8285759h-16.988695c-14.256976 0-21.993301-7.581139-21.993301-21.8285759v-77.6245344c0-14.24980037 7.736325-21.83094 21.993301-21.83094h16.988695c14.105608 0 21.839568 7.58113963 21.839568 21.83094z"/><path d="m275.352628 121.308475c-1.823511 0-2.880723-.756459-3.490925-2.271741l-19.107848-45.0282348-5.614808 10.7653601v33.5016877c0 1.971521-1.059576 3.032928-3.03209 3.032928h-14.562077c-1.972515 0-3.034456-1.061407-3.034456-3.032928v-115.21819366c0-1.96915788 1.061941-3.03292864 3.034456-3.03292864h14.562077c1.970149 0 3.03209 1.06140683 3.03209 3.03292864v46.99739226l23.357979-47.75621541c.759205-1.51528235 1.823511-2.27410549 3.490925-2.27410549h15.924389c2.275251 0 3.185824 1.51764629 2.121518 3.638096l-25.782232 52.9095938 27.449645 61.2495565c1.061941 1.971522.151368 3.486804-2.272885 3.486804z"/><path d="m365.293617 17.6121013c0 1.5152823-.607838 2.5766892-2.426619 2.5766892h-37.920055v30.3198306h28.97042c1.520776 0 2.426619.910115 2.426619 2.5766892v15.0086235c0 1.6689381-.910573 2.5790531-2.426619 2.5790531h-28.97042v30.6224141h37.920055c1.823512 0 2.426619.758823 2.426619 2.425398v15.162279c0 1.515282-.607838 2.420669-2.426619 2.420669h-55.816959c-1.367043 0-2.277616-.910115-2.277616-2.420669v-116.43325596c0-1.51528236.910573-2.42539734 2.277616-2.42539734h55.816959c1.823512 0 2.426619.91011498 2.426619 2.42539734z"/><path d="m435.665557.0244247c1.667414 0 2.426619.91011498 2.426619 2.42539734v15.16227926c0 1.5152823-.759205 2.4253973-2.426619 2.4253973h-17.594167v98.8455794c0 1.666574-.75684 2.420669-2.424254 2.420669h-15.775386c-1.520776 0-2.426619-.754095-2.426619-2.420669v-98.8455794h-17.591803c-1.520775 0-2.426618-.910115-2.426618-2.4253973v-15.16227926c0-1.51528236.910573-2.42539734 2.426618-2.42539734z"/><path d="m436.586195 104.356644c0-1.971522 1.061941-3.030564 3.034456-3.030564h13.802872c1.972514 0 3.032091 1.059042 3.032091 3.030564v13.944853c0 1.973886-1.059577 3.032929-3.032091 3.032929h-13.802872c-1.972515 0-3.034456-1.059043-3.034456-3.032929z"/><path d="m532.422837 38.2279787c0 1.5176462-.912938 2.4253973-2.426618 2.4253973h-15.16755c-1.667413 0-2.424253-.9077511-2.424253-2.4253973v-12.1269867c0-3.9406797-2.121518-6.0611294-6.064182-6.0611294h-7.887693c-4.096397 0-6.066546 2.1204497-6.066546 6.0611294v69.1356438c0 4.0919715 2.121517 6.0587652 6.066546 6.0587652h7.887693c3.942664 0 6.064182-1.9691576 6.064182-6.0587652v-12.1317146c0-1.5176463.75684-2.4253973 2.424253-2.4253973h15.16755c1.520775 0 2.426618.907751 2.426618 2.4253973v16.3749779c0 14.2474369-7.736325 21.8285759-21.841933 21.8285759h-16.988695c-14.256976 0-21.993301-7.581139-21.993301-21.8285759v-77.6245344c0-14.24980037 7.736325-21.83094 21.993301-21.83094h16.988695c14.107973 0 21.841933 7.58113963 21.841933 21.83094z"/><path d="m587.627229 2.44982204c0-1.51528236.908208-2.42539734 2.424253-2.42539734h15.621654c1.821146 0 2.575621.91011498 2.575621 2.42539734v116.43325596c0 1.515282-.75684 2.420669-2.575621 2.420669h-15.621654c-1.520775 0-2.424253-.910115-2.424253-2.420669v-48.2100911h-19.415314v48.2124551c0 1.517646-.910574 2.423033-2.426619 2.423033h-15.619288c-1.823512 0-2.580352-.910115-2.580352-2.423033v-116.43561996c0-1.51528236.75684-2.42539734 2.580352-2.42539734h15.619288c1.520776 0 2.426619.91011498 2.426619 2.42539734v48.21009096h19.415314z"/><path d="m677.416849 121.308475c-1.364677 0-2.121517-.756459-2.426618-2.122813l-4.2454-22.1311602h-27.000272l-4.091667 22.1311602c-.305101 1.366354-1.061941 2.122813-2.426619 2.122813h-16.227125c-1.667413 0-2.426618-.910115-1.97488-2.576689l25.179125-116.58454765c.305102-1.51528235 1.21331-2.12281365 2.577987-2.12281365h21.085093c1.364677 0 2.275251.6075313 2.577987 2.12281365l25.179125 116.58454765c.305101 1.666574-.302737 2.576689-2.121518 2.576689zm-20.174519-94.7536075-9.706475 52.9095938h19.415314z"/><path d="m752.339291.0244247c1.667414 0 2.426619.91011498 2.426619 2.42539734v15.16227926c0 1.5152823-.759205 2.4253973-2.426619 2.4253973h-17.591802v98.8455794c0 1.666574-.759206 2.420669-2.426619 2.420669h-15.775386c-1.516046 0-2.424254-.754095-2.424254-2.420669v-98.8455794h-17.591802c-1.518411 0-2.424254-.910115-2.424254-2.4253973v-15.16227926c0-1.51528236.910573-2.42539734 2.424254-2.42539734z"/></g><path d="m180.330283 70.2108641.003609.0056432c-.000601-.0009405-.001203-.0018809-.001805-.0028213-.000601-.0009406-.001203-.0018813-.001804-.0028219zm-118.376131-62.56650083c6.3387401 3.52053473 12.3304614 7.97478583 17.4474489 12.92560413 8.2483703-1.493946 16.7534113-2.2472853 25.3816541-2.2472853 25.829288 0 50.317728 6.7758093 68.949969 19.0753991 9.648766 6.3726136 17.318087 13.9335933 22.79236 22.4749752 6.096443 9.5175397 9.186759 19.7523434 9.186759 30.7192654 0 10.6719522-3.090316 20.9110002-9.186759 30.4264182-5.474273 8.545626-13.143594 16.104484-22.79236 22.477097-18.632241 12.29959-43.118627 19.071155-68.949969 19.071155-8.6282428 0-17.1312305-.753339-25.3816541-2.245163-5.1190409 4.948696-11.1087088 9.405069-17.4474489 12.925604-33.868215 16.961805-61.954152.398952-61.954152.398952s26.1126525-22.169396 21.8662921-41.603427c-11.6836513-11.974911-18.01417792-26.417804-18.01417792-41.7413615 0-15.0349541 6.33258002-29.4778472 18.01417792-41.4548805 4.2456572-19.4286913-21.85764516-41.59396243-21.86628995-41.60130241.00835221-.00492837 28.09097195-16.5624544 61.95414985.39894968z" fill="#db2323" fill-rule="nonzero"/><path d="m41.6969487 124.026456c-11.6079642-9.147807-18.5755614-20.853906-18.5755614-33.6127751 0-29.2774081 36.6879889-53.0114368 81.9449167-53.0114368 45.256928 0 81.944917 23.7340287 81.944917 53.0114368s-36.687989 53.0114371-81.944917 53.0114371c-11.153988 0-21.7874802-1.441656-31.4795213-4.052646l-7.0858271 6.833734c-3.8501553 3.713177-8.3628437 7.073426-13.0666687 9.72133-6.2348704 3.061887-12.3916858 4.732411-18.4830125 5.242134.3436223-.624722.6600359-1.257578.9997137-1.883283 7.099975-13.078552 9.0152952-24.831862 5.7459606-35.259931z" fill="#fff"/><path d="m65.7703624 103.026182c-6.6534511 0-12.047139-5.4803639-12.047139-12.2407349 0-6.7603709 5.3936879-12.2407344 12.047139-12.2407344 6.6534512 0 12.047139 5.4803635 12.047139 12.2407344 0 6.760371-5.3936878 12.2407349-12.047139 12.2407349zm38.7859106 0c-6.6534508 0-12.0471386-5.4803639-12.0471386-12.2407349 0-6.7603709 5.3936878-12.2407344 12.0471386-12.2407344 6.653452 0 12.047139 5.4803635 12.047139 12.2407344 0 6.760371-5.393687 12.2407349-12.047139 12.2407349zm38.785911 0c-6.653451 0-12.047139-5.4803639-12.047139-12.2407349 0-6.7603709 5.393688-12.2407344 12.047139-12.2407344 6.653452 0 12.047139 5.4803635 12.047139 12.2407344 0 6.760371-5.393687 12.2407349-12.047139 12.2407349z" fill="#db2323" fill-rule="nonzero"/></g></svg>
